public/external-logos/anyscale-logo.svg

<svg width="184" height="42" viewBox="0 0 184 42" fill="none" xmlns="http://www.w3.org/2000/svg">
<path d="M13.9825 22.9204H5.0733C2.2273 22.9204 0 25.1504 0 28V36.9203C0 39.7699 2.2273 42 5.0733 42H13.9825C16.8285 42 19.0558 39.7699 19.0558 36.9203V28C19.0558 25.1504 16.7048 22.9204 13.9825 22.9204ZM15.9623 36.7965C15.9623 37.9115 15.0962 38.7788 13.9825 38.7788H5.0733C3.95965 38.7788 3.09348 37.9115 3.09348 36.7965V27.8761C3.09348 26.7611 3.95965 25.8938 5.0733 25.8938H13.9825C15.0962 25.8938 15.9623 26.7611 15.9623 27.8761V36.7965Z" fill="#234999"/>
<path d="M36.8742 15.7345H26.2327V5.07965C26.1089 2.23009 23.8816 0 21.0356 0H5.0733C2.2273 0 0 2.23009 0 5.07965V13.7522C0 16.6018 2.2273 18.8319 5.0733 18.8319H23.0155V36.7965C23.0155 39.646 25.2428 41.8761 28.0888 41.8761H36.7505C39.5965 41.8761 41.8238 39.646 41.8238 36.7965V20.8142C41.8238 18.0885 39.5965 15.8584 36.8742 15.7345ZM5.0733 15.7345C3.95965 15.7345 3.09348 14.8673 3.09348 13.7522V5.07965C3.09348 3.9646 3.95965 3.09734 5.0733 3.09734H21.0356C22.1493 3.09734 23.0155 3.9646 23.0155 5.07965V15.7345H5.0733ZM38.8541 36.7965C38.8541 37.9115 37.9879 38.7788 36.8742 38.7788H28.2125C27.0989 38.7788 26.2327 37.9115 26.2327 36.7965V18.8319H36.8742C37.9879 18.8319 38.8541 19.6991 38.8541 20.8142V36.7965Z" fill="#234999"/>
<path d="M103.941 22.9204L99.9812 12.2655H95.6503L101.837 27.1327L98.4963 34.8142H102.58L111.984 12.2655H107.9L103.941 22.9204Z" fill="#234999"/>
<path d="M122.502 19.4513C121.635 19.0796 120.646 18.8319 119.779 18.5841C118.913 18.3363 118.171 18.0885 117.428 17.7168C116.933 17.469 116.686 17.0973 116.686 16.6018C116.686 16.1062 116.933 15.7345 117.305 15.4867C118.418 14.8673 119.656 14.9911 120.769 15.6106C121.264 15.9823 121.512 16.4779 121.512 17.0973H125.224C125.224 15.6106 124.481 14.2478 123.368 13.3805C122.13 12.3894 120.522 11.8938 119.037 12.0177C117.923 12.0177 116.81 12.1416 115.82 12.6372C114.954 13.0088 114.211 13.5044 113.716 14.2478C113.221 14.8673 112.974 15.7345 112.974 16.6018C112.974 17.469 113.221 18.3363 113.716 19.0796C114.211 19.6991 114.83 20.1947 115.572 20.4425C116.438 20.8142 117.428 21.0619 118.418 21.3097C119.284 21.5575 120.027 21.8053 120.893 22.177C121.388 22.4248 121.635 22.7965 121.635 23.292C121.635 23.7876 121.388 24.1593 121.017 24.4071C120.522 24.7788 119.903 24.9027 119.284 24.9027C118.666 24.9027 117.923 24.7788 117.428 24.2832C116.933 23.9115 116.686 23.4159 116.562 22.7965H112.726C112.726 23.7876 113.097 24.6549 113.716 25.3982C114.335 26.1416 115.201 26.885 116.067 27.2566C117.181 27.7522 118.295 28 119.408 28C120.522 28 121.635 27.8761 122.625 27.3805C123.492 27.0088 124.234 26.5133 124.729 25.7699C125.224 25.0265 125.471 24.2832 125.471 23.4159C125.471 22.5487 125.224 21.6814 124.605 20.9381C123.863 20.0708 123.244 19.6991 122.502 19.4513Z" fill="#234999"/>
<path d="M134.628 15.3628C135.371 15.3628 135.989 15.4867 136.608 15.9823C137.103 16.354 137.474 16.9735 137.722 17.5929H141.929C141.558 15.9823 140.691 14.6195 139.454 13.6283C138.093 12.6372 136.484 12.1416 134.752 12.2655C133.391 12.2655 132.03 12.6372 130.792 13.2566C129.679 13.8761 128.689 14.8673 128.07 15.9823C126.833 18.5841 126.833 21.6814 128.07 24.2832C128.689 25.3982 129.555 26.3894 130.792 27.0088C132.03 27.6283 133.391 28 134.752 28C136.484 28 138.093 27.5044 139.454 26.5133C140.691 25.5221 141.558 24.1593 141.929 22.5487H137.845C137.474 23.9115 136.113 24.7788 134.752 24.6549C133.762 24.6549 132.772 24.2832 132.153 23.4159C130.916 21.3097 130.916 18.708 132.153 16.6018C132.648 15.7345 133.638 15.2389 134.628 15.3628Z" fill="#234999"/>
<path d="M155.416 13.2566C155.416 13.5044 155.169 13.7522 154.921 13.7522C154.798 13.7522 154.674 13.7522 154.674 13.6283C154.303 13.2566 153.931 13.0089 153.436 12.7611C152.57 12.2655 151.457 12.0177 150.467 12.0177C149.229 12.0177 147.992 12.3894 146.878 13.0089C145.765 13.6283 144.898 14.6195 144.404 15.7345C143.785 16.9735 143.414 18.4602 143.414 19.823C143.414 21.3097 143.661 22.6726 144.404 24.0354C144.898 25.1504 145.765 26.1416 146.878 26.885C147.992 27.5044 149.106 27.8761 150.343 27.8761C151.333 27.8761 152.447 27.6283 153.313 27.1327C154.179 26.7611 154.798 26.1416 155.416 25.3982V27.6283H159.252V12.2655H155.416V13.2566ZM154.921 22.3009C154.55 22.9204 154.055 23.5398 153.436 23.9115C152.818 24.2832 152.075 24.4071 151.457 24.4071C150.714 24.4071 150.096 24.1593 149.477 23.9115C148.858 23.5398 148.363 22.9204 147.992 22.3009C147.621 21.5575 147.373 20.6903 147.373 19.9469C147.373 19.0796 147.497 18.3363 147.992 17.5929C149.106 15.6106 151.457 14.9911 153.436 15.9823C153.436 15.9823 153.436 15.9823 153.56 15.9823C154.179 16.354 154.674 16.8496 155.045 17.5929C155.664 19.0796 155.664 20.8142 154.921 22.3009Z" fill="#234999"/>
<path d="M73.3773 13.2566C73.3773 13.5044 73.1298 13.7522 72.8823 13.7522C72.7586 13.7522 72.6348 13.7522 72.6348 13.6283C72.2636 13.2566 71.8924 13.0089 71.3974 12.7611C70.5312 12.2655 69.4176 12.0177 68.4277 12.0177C67.1903 12.0177 65.9529 12.3894 64.8393 13.0089C63.7256 13.6283 62.8594 14.6195 62.3645 15.7345C61.7458 16.9735 61.3746 18.4602 61.3746 19.823C61.3746 21.3097 61.622 22.6726 62.3645 24.0354C62.8594 25.1504 63.7256 26.1416 64.8393 26.885C65.9529 27.5044 67.0666 27.8761 68.3039 27.8761C69.2939 27.8761 70.4075 27.6283 71.2737 27.1327C72.1399 26.7611 72.7586 26.1416 73.3773 25.3982V27.6283H77.2132V12.2655H73.3773V13.2566ZM72.7586 22.3009C72.3873 22.9204 71.8924 23.5398 71.2737 23.9115C70.655 24.2832 69.9126 24.4071 69.2939 24.4071C68.5514 24.4071 67.9327 24.1593 67.314 23.9115C66.6953 23.5398 66.2004 22.9204 65.8292 22.3009C65.4579 21.5575 65.2105 20.6903 65.2105 19.9469C65.2105 19.0796 65.3342 18.3363 65.8292 17.5929C66.9428 15.6106 69.2939 14.9911 71.2737 15.9823C71.2737 15.9823 71.2737 15.9823 71.3974 15.9823C72.0161 16.354 72.5111 16.8496 72.8823 17.5929C73.501 19.0796 73.501 20.8142 72.7586 22.3009Z" fill="#234999"/>
<path d="M166.305 7.18584H162.469V27.6283H166.305V7.18584Z" fill="#234999"/>
<path d="M184 19.5752C184 18.2124 183.753 16.8496 183.01 15.6106C182.391 14.4956 181.525 13.5044 180.288 13.0088C177.813 11.7699 174.843 11.7699 172.369 13.0088C171.255 13.6283 170.265 14.6195 169.646 15.7345C168.904 17.0973 168.656 18.4602 168.656 19.9469C168.656 21.4336 168.904 22.7965 169.646 24.0354C170.265 25.1504 171.255 26.1416 172.369 26.7611C173.606 27.3805 174.967 27.7522 176.328 27.7522C177.937 27.7522 179.545 27.2566 180.907 26.3894C182.144 25.5221 183.01 24.1593 183.381 22.7965H179.422C178.927 24.0354 177.689 24.7788 176.328 24.6549C175.462 24.6549 174.472 24.2832 173.853 23.6637C173.111 23.0442 172.74 22.0531 172.74 21.0619H183.876C184 20.5664 184 20.0708 184 19.5752ZM172.74 18.4602C172.863 17.469 173.235 16.6018 173.977 15.9823C174.72 15.3628 175.586 15.115 176.452 15.115C177.442 15.115 178.308 15.3628 179.05 15.9823C179.793 16.6018 180.164 17.469 180.164 18.3363L172.74 18.4602Z" fill="#234999"/>
<path d="M88.8447 12.0177C87.9785 12.0177 86.9886 12.2655 86.2461 12.6372C85.7512 12.885 85.2562 13.1327 84.885 13.5044C84.7613 13.6283 84.5138 13.6283 84.3901 13.5044C84.2663 13.3805 84.2663 13.3805 84.2663 13.2566V12.2655H80.4304V27.6283H84.2663V19.2035C84.1426 18.2124 84.5138 17.2212 85.2562 16.354C85.8749 15.7345 86.8648 15.3628 87.731 15.3628C88.5972 15.3628 89.5871 15.7345 90.2058 16.354C90.8245 17.0973 91.1957 18.0885 91.072 19.2035V27.6283H94.9079V18.5841C95.0316 16.8496 94.5367 15.115 93.2993 13.7522C92.1856 12.6372 90.4533 11.8938 88.8447 12.0177Z" fill="#234999"/>
</svg>

<svg width="184" height="42" fill="none" xmlns="http://www.w3.org/2000/svg"><path d="M13.982 22.92H5.073C2.227 22.92 0 25.15 0 28v8.92C0 39.77 2.227 42 5.073 42h8.91c2.845 0 5.073-2.23 5.073-5.08V28c0-2.85-2.351-5.08-5.074-5.08Zm1.98 13.877a1.956 1.956 0 0 1-1.98 1.982H5.073a1.956 1.956 0 0 1-1.98-1.983v-8.92c0-1.115.867-1.982 1.98-1.982h8.91c1.113 0 1.98.867 1.98 1.982v8.92Z" fill="#234999"/><path d="M36.874 15.735H26.233V5.08C26.109 2.23 23.882 0 21.036 0H5.073C2.227 0 0 2.23 0 5.08v8.672c0 2.85 2.227 5.08 5.073 5.08h17.942v17.965c0 2.849 2.228 5.08 5.074 5.08h8.662c2.846 0 5.073-2.231 5.073-5.08V20.814c0-2.726-2.227-4.956-4.95-5.08Zm-31.8 0a1.956 1.956 0 0 1-1.98-1.983V5.08c0-1.115.866-1.983 1.98-1.983h15.962c1.113 0 1.98.868 1.98 1.983v10.654H5.072Zm33.78 21.062a1.956 1.956 0 0 1-1.98 1.982h-8.662a1.956 1.956 0 0 1-1.98-1.983V18.833h10.642c1.114 0 1.98.867 1.98 1.982v15.983ZM103.941 22.92l-3.96-10.655h-4.33l6.186 14.868-3.34 7.681h4.083l9.404-22.549H107.9l-3.959 10.655ZM122.502 19.451c-.867-.371-1.856-.62-2.723-.867-.866-.248-1.608-.495-2.351-.867-.495-.248-.742-.62-.742-1.115 0-.496.247-.867.619-1.115 1.113-.62 2.351-.496 3.464.124.495.371.743.867.743 1.486h3.712c0-1.486-.743-2.85-1.856-3.717-1.238-.99-2.846-1.486-4.331-1.362-1.114 0-2.227.124-3.217.62-.866.37-1.609.866-2.104 1.61-.495.62-.742 1.487-.742 2.354s.247 1.734.742 2.478c.495.62 1.114 1.115 1.856 1.363.866.371 1.856.619 2.846.867.866.248 1.609.495 2.475.867.495.248.742.62.742 1.115 0 .496-.247.867-.618 1.115-.495.372-1.114.496-1.733.496-.618 0-1.361-.124-1.856-.62-.495-.372-.742-.867-.866-1.486h-3.836c0 .99.371 1.858.99 2.601.619.744 1.485 1.487 2.351 1.859 1.114.495 2.228.743 3.341.743 1.114 0 2.227-.124 3.217-.62.867-.371 1.609-.867 2.104-1.61.495-.744.742-1.487.742-2.354s-.247-1.735-.866-2.478c-.742-.867-1.361-1.239-2.103-1.487ZM134.628 15.363c.743 0 1.361.124 1.98.62.495.371.866.99 1.114 1.61h4.207a7.05 7.05 0 0 0-2.475-3.965c-1.361-.99-2.97-1.486-4.702-1.363-1.361 0-2.722.372-3.96.992a7.2 7.2 0 0 0-2.722 2.725 9.748 9.748 0 0 0 0 8.301c.619 1.115 1.485 2.106 2.722 2.726 1.238.62 2.599.991 3.96.991 1.732 0 3.341-.496 4.702-1.487a7.05 7.05 0 0 0 2.475-3.964h-4.084c-.371 1.363-1.732 2.23-3.093 2.106-.99 0-1.98-.372-2.599-1.24a6.72 6.72 0 0 1 0-6.813 2.513 2.513 0 0 1 2.475-1.24ZM155.416 13.257c0 .247-.247.495-.495.495-.123 0-.247 0-.247-.124-.371-.371-.743-.62-1.238-.867-.866-.495-1.979-.743-2.969-.743-1.238 0-2.475.371-3.589.99a5.855 5.855 0 0 0-2.474 2.727c-.619 1.239-.99 2.725-.99 4.088 0 1.487.247 2.85.99 4.212.494 1.115 1.361 2.107 2.474 2.85 1.114.62 2.228.991 3.465.991.99 0 2.104-.248 2.97-.743.866-.372 1.485-.991 2.103-1.735v2.23h3.836V12.265h-3.836v.992Zm-.495 9.044c-.371.62-.866 1.239-1.485 1.61-.618.372-1.361.496-1.979.496-.743 0-1.361-.248-1.98-.495-.619-.372-1.114-.992-1.485-1.611-.371-.743-.619-1.61-.619-2.354 0-.867.124-1.61.619-2.354 1.114-1.982 3.465-2.602 5.444-1.61h.124a3.761 3.761 0 0 1 1.485 1.61c.619 1.487.619 3.221-.124 4.708ZM73.377 13.257c0 .247-.247.495-.495.495-.123 0-.247 0-.247-.124-.371-.371-.743-.62-1.238-.867-.866-.495-1.98-.743-2.97-.743-1.237 0-2.474.371-3.588.99a5.857 5.857 0 0 0-2.474 2.727c-.62 1.239-.99 2.725-.99 4.088 0 1.487.247 2.85.99 4.212.494 1.115 1.36 2.107 2.474 2.85 1.114.62 2.228.991 3.465.991.99 0 2.103-.248 2.97-.743.866-.372 1.485-.991 2.103-1.735v2.23h3.836V12.265h-3.836v.992ZM72.76 22.3c-.372.62-.867 1.239-1.485 1.61-.619.372-1.361.496-1.98.496-.743 0-1.361-.248-1.98-.495-.619-.372-1.114-.992-1.485-1.611-.371-.743-.618-1.61-.618-2.354 0-.867.123-1.61.618-2.354 1.114-1.982 3.465-2.602 5.445-1.61h.123a3.764 3.764 0 0 1 1.485 1.61c.619 1.487.619 3.221-.123 4.708ZM166.305 7.186h-3.836v20.442h3.836V7.186ZM184 19.575c0-1.363-.247-2.725-.99-3.964-.619-1.115-1.485-2.107-2.722-2.602a8.9 8.9 0 0 0-7.919 0 7.196 7.196 0 0 0-2.723 2.726c-.742 1.362-.99 2.725-.99 4.212 0 1.487.248 2.85.99 4.088a7.196 7.196 0 0 0 2.723 2.726c1.237.62 2.598.991 3.959.991 1.609 0 3.217-.495 4.579-1.363 1.237-.867 2.103-2.23 2.474-3.592h-3.959c-.495 1.238-1.733 1.982-3.094 1.858-.866 0-1.856-.372-2.475-.991-.742-.62-1.113-1.61-1.113-2.602h11.136c.124-.496.124-.991.124-1.487Zm-11.26-1.115c.123-.991.495-1.858 1.237-2.478.743-.62 1.609-.867 2.475-.867.99 0 1.856.248 2.598.867a3.051 3.051 0 0 1 1.114 2.354l-7.424.124ZM88.845 12.018c-.867 0-1.856.247-2.599.62-.495.247-.99.495-1.361.866a.376.376 0 0 1-.495 0c-.124-.123-.124-.123-.124-.247v-.992H80.43v15.363h3.836v-8.425c-.123-.99.248-1.982.99-2.849.619-.62 1.609-.991 2.475-.991.866 0 1.856.372 2.475.991.618.743.99 1.735.866 2.85v8.424h3.836v-9.044c.124-1.734-.371-3.469-1.609-4.832-1.113-1.115-2.846-1.858-4.454-1.734Z" fill="#234999"/></svg>
